;FLAVOR:Marlin
;TIME:26140
;Filament used: 24.3819m
;Layer height: 0.28
;MINX:5.858
;MINY:12.251
;MINZ:0.28
;MAXX:294.18
;MAXY:226.68
;MAXZ:36.96
;Generated with Cura_SteamEngine 4.10.0
M140 S50
M105
M190 S50
M104 S200
M105
M109 S200
M82 ;absolute extrusion mode
M201 X500.00 Y500.00 Z100.00 E5000.00 ;Setup machine max acceleration
M203 X500.00 Y500.00 Z10.00 E50.00 ;Setup machine max feedrate
M204 P500.00 R1000.00 T500.00 ;Setup Print/Retract/Travel acceleration
M205 X8.00 Y8.00 Z0.40 E5.00 ;Setup Jerk
M220 S100 ;Reset Feedrate
M221 S100 ;Reset Flowrate

G28 ;Home

G92 E0 ;Reset Extruder
G1 Z2.0 F3000 ;Move Z Axis up
G1 X10.1 Y20 Z0.28 F5000.0 ;Move to start position
G1 X10.1 Y200.0 Z0.28 F1500.0 E15 ;Draw the first line
G1 X10.4 Y200.0 Z0.28 F5000.0 ;Move to side a little
G1 X10.4 Y20 Z0.28 F1500.0 E30 ;Draw the second line
G92 E0 ;Reset Extruder
G1 Z2.0 F3000 ;Move Z Axis up

G92 E0
G92 E0
G1 F2700 E-5
;LAYER_COUNT:132
;LAYER:0
M107
G0 F6000 X113.96 Y144.35 Z0.28
;TYPE:SKIRT
G1 F2700 E0
G1 F1200 X113.96 Y148.055 E0.17252
G1 X117.071 Y147.503 E0.31964
G1 X120.903 Y144.35 E0.55072
G1 X113.96 Y144.35 E0.87401
G0 F6000 X113.56 Y143.95
G1 F1200 X113.56 Y148.532 E1.08737
G1 X117.244 Y147.879 E1.26158
G1 X122.019 Y143.95 E1.54952
G1 X113.56 Y143.95 E1.94341
G0 F6000 X113.16 Y143.55
G1 F1200 X113.16 Y149.008 E2.19756
G1 X117.418 Y148.253 E2.39892
G1 X123.134 Y143.55 E2.74359
G1 X113.16 Y143.55 E3.20802
G0 F6000 X112.76 Y143.15
G1 F1200 X112.76 Y149.485 E3.50301
G1 X117.591 Y148.629 E3.73146
G1 X124.25 Y143.15 E4.133
G1 X112.76 Y143.15 E4.66802
G0 F6000 X112.36 Y142.75
G1 F1200 X112.36 Y149.963 E5.00389
G1 X117.764 Y149.005 E5.25945
G1 X125.366 Y142.75 E5.71785
G1 X112.36 Y142.75 E6.32346
G0 F6000 X111.96 Y142.35
G1 F1200 X111.96 Y150.44 E6.70017
G1 X117.937 Y149.381 E6.98282
G1 X126.482 Y142.35 E7.49809
G1 X111.96 Y142.35 E8.17429
G0 F6000 X111.56 Y141.95
G1 F1200 X111.56 Y150.917 E8.59183
G1 X118.109 Y149.756 E8.90154
G1 X127.597 Y141.95 E9.47364
G1 X111.56 Y141.95 E10.22039
G0 F6000 X111.16 Y141.55
G1 F1200 X111.16 Y151.394 E10.67877
G1 X118.283 Y150.132 E11.01561
G1 X128.715 Y141.548 E11.64468
G1 X128.695 Y141.55 E11.64562
G1 X111.16 Y141.55 E12.46212
G0 F6000 X110.76 Y141.15
G1 F1200 X110.76 Y151.872 E12.96138
G1 X118.455 Y150.508 E13.32528
G1 X130.114 Y140.915 E14.02832
G1 X129.868 Y140.998 E14.04041
G1 X129.273 Y141.114 E14.06863
G1 X128.695 Y141.15 E14.0956
G1 X110.76 Y141.15 E14.93073
G0 F6000 X110.36 Y140.75
G1 F1200 X110.36 Y152.348 E15.47078
G1 X118.631 Y150.882 E15.86192
G1 X202.211 Y82.115 E20.90173
G1 X202.838 Y81.687 E20.93708
G1 X272.799 Y42.797 E24.66424
G1 X273.08 Y42.655 E24.6789
G1 X274.748 Y41.885 E24.76445
G1 X275.289 Y41.679 E24.7914
G1 X275.713 Y41.574 E24.81174
G1 X277.507 Y41.228 E24.89682
G1 X278.12 Y41.156 E24.92556
G1 X278.55 Y41.157 E24.94558
G1 X280.359 Y41.254 E25.02993
G1 X280.777 Y41.297 E25.0495
G1 X281.384 Y41.434 E25.07848
G1 X283.106 Y41.958 E25.16229
G1 X283.627 Y42.155 E25.18823
G1 X284.054 Y42.378 E25.21066
G1 X285.61 Y43.306 E25.29502
G1 X286.004 Y43.572 E25.31715
G1 X286.025 Y43.588 E25.31838
G1 X286.439 Y43.949 E25.34396
G1 X287.72 Y45.221 E25.42802
G1 X288.102 Y45.656 E25.45498
G1 X288.36 Y46.031 E25.47617
G1 X289.301 Y47.57 E25.56017
G1 X289.542 Y48.023 E25.58406
G1 X289.552 Y48.045 E25.58519
G1 X289.735 Y48.525 E25.60911
G1 X290.277 Y50.251 E25.69335
G1 X290.361 Y50.557 E25.70812
G1 X290.467 Y51.268 E25.7416
G1 X290.58 Y53.075 E25.8259
G1 X290.583 Y53.542 E25.84765
G1 X290.519 Y54.111 E25.87431
G1 X290.195 Y55.893 E25.95865
G1 X290.095 Y56.317 E25.97893
G1 X289.888 Y56.883 E26.007
G1 X289.148 Y58.531 E26.09111
G1 X288.952 Y58.916 E26.11123
G1 X288.61 Y59.424 E26.13975
G1 X287.483 Y60.861 E26.22478
G1 X287.148 Y61.239 E26.2483
G1 X231.166 Y117.221 E29.93481
G1 X230.764 Y117.574 E29.95972
G1 X230.742 Y117.591 E29.96102
G1 X230.334 Y117.87 E29.98403
G1 X152.315 Y164.644 E34.21978
G1 X140.19 Y207.424 E36.29026
G1 X139.994 Y207.969 E36.31723
G1 X139.765 Y208.416 E36.34062
G1 X139.739 Y208.46 E36.343
G1 X139.41 Y208.937 E36.36998
G1 X139.093 Y209.293 E36.39218
G1 X128.715 Y219.67 E37.07555
G1 X128.321 Y220.017 E37.1
G1 X126.865 Y221.148 E37.18585
G1 X126.56 Y221.364 E37.20325
G1 X125.952 Y221.693 E37.23544
G1 X124.282 Y222.425 E37.32034
G1 X123.772 Y222.61 E37.34561
G1 X123.263 Y222.728 E37.36994
G1 X121.458 Y223.029 E37.45515
G1 X120.926 Y223.083 E37.48004
G1 X120.397 Y223.073 E37.50468
G1 X118.52 Y222.917 E37.59238
G1 X105.213 Y221.678 E38.21469
G1 X104.641 Y221.585 E38.24168
G1 X104.087 Y221.413 E38.26869
G1 X103.498 Y221.131 E38.2991
G1 X103.422 Y221.087 E38.30319
G1 X102.942 Y220.763 E38.33015
G1 X102.511 Y220.376 E38.35712
G1 X102.037 Y219.79 E38.39222
G1 X91.054 Y203.396 E39.31107
G1 X66.076 Y217.279 E40.64173
G1 X65.552 Y217.525 E40.66868
G1 X64.961 Y217.705 E40.69745
G1 X64.899 Y217.719 E40.70041
G1 X64.327 Y217.807 E40.72736
G1 X63.585 Y217.804 E40.76191
G1 X49.363 Y216.48 E41.42701
G1 X48.834 Y216.397 E41.45194
G1 X44.028 Y215.321 E41.68127
G1 X43.651 Y215.217 E41.69948
G1 X43.007 Y214.952 E41.73191
G1 X38.629 Y212.706 E41.96103
G1 X38.195 Y212.45 E41.98449
G1 X37.73 Y212.09 E42.01187
G1 X34.061 Y208.819 E42.24075
G1 X33.614 Y208.354 E42.27079
G1 X33.348 Y207.998 E42.29148
G1 X30.618 Y203.907 E42.5205
G1 X30.376 Y203.496 E42.5427
G1 X30.132 Y202.93 E42.5714
G1 X28.518 Y198.281 E42.80056
G1 X28.374 Y197.761 E42.82568
G1 X28.369 Y197.737 E42.82682
G1 X28.295 Y197.217 E42.85128
G1 X27.901 Y192.321 E43.07999
G1 X27.89 Y191.816 E43.10352
G1 X27.891 Y191.791 E43.10468
G1 X27.951 Y191.231 E43.13091
G1 X28.803 Y186.387 E43.35992
G1 X28.915 Y185.915 E43.38251
G1 X29.126 Y185.348 E43.41068
G1 X31.168 Y180.87 E43.63985
G1 X31.444 Y180.361 E43.66682
G1 X31.728 Y179.966 E43.68947
G1 X33.231 Y178.115 E43.8005
G1 X28.397 Y177.653 E44.02661
G1 X27.737 Y177.536 E44.05782
G1 X27.334 Y177.411 E44.07747
G1 X22.717 Y175.726 E44.30633
G1 X22.371 Y175.582 E44.32378
G1 X21.746 Y175.226 E44.35727
G1 X17.697 Y172.433 E44.58631
G1 X17.264 Y172.09 E44.61204
G1 X17.243 Y172.071 E44.61336
G1 X16.884 Y171.704 E44.63726
G1 X13.672 Y167.989 E44.86594
G1 X13.331 Y167.536 E44.89234
G1 X13.316 Y167.513 E44.89362
G1 X13.069 Y167.08 E44.91683
G1 X10.891 Y162.673 E45.14573
G1 X10.67 Y162.137 E45.17273
G1 X10.544 Y161.667 E45.19539
G1 X9.538 Y156.826 E45.42562
G1 X9.464 Y156.312 E45.4498
G1 X9.453 Y155.74 E45.47644
G1 X9.697 Y150.829 E45.7054
G1 X9.738 Y150.415 E45.72477
G1 X9.888 Y149.753 E45.75638
G1 X11.359 Y145.06 E45.98539
G1 X11.551 Y144.562 E46.01024
G1 X17.516 Y131.58 E46.67549
G1 X17.793 Y131.072 E46.70244
G1 X18.197 Y130.539 E46.73358
G1 X18.238 Y130.493 E46.73645
G1 X18.652 Y130.089 E46.76338
G1 X19.214 Y129.685 E46.79561
G1 X43.73 Y114.995 E48.12643
G1 X35.024 Y97.29 E49.04513
G1 X34.805 Y96.754 E49.07209
G1 X34.662 Y96.193 E49.09905
G1 X34.594 Y95.528 E49.13017
G1 X34.592 Y95.436 E49.13446
G1 X34.619 Y94.858 E49.1614
G1 X34.726 Y94.288 E49.18841
G1 X34.975 Y93.591 E49.22287
G1 X40.574 Y81.411 E49.84708
G1 X41.359 Y79.747 E49.93275
G1 X41.688 Y79.173 E49.96356
G1 X41.928 Y78.851 E49.98226
G1 X43.087 Y77.44 E50.06728
G1 X43.448 Y77.053 E50.09192
G1 X43.466 Y77.036 E50.09308
G1 X43.865 Y76.703 E50.11728
G1 X45.341 Y75.62 E50.20252
G1 X45.741 Y75.36 E50.22474
G1 X46.26 Y75.105 E50.25166
G1 X47.971 Y74.408 E50.33769
G1 X48.469 Y74.241 E50.36215
G1 X62.64 Y70.445 E51.04527
G1 X63.209 Y70.334 E51.07227
G1 X63.727 Y70.302 E51.09643
G1 X63.78 Y70.302 E51.0989
G1 X64.358 Y70.342 E51.12588
G1 X64.808 Y70.43 E51.14723
G1 X107.921 Y81.318 E53.21778
G1 X187.432 Y37.14 E57.45326
G1 X187.912 Y36.911 E57.47802
G1 X187.937 Y36.901 E57.47927
G1 X188.41 Y36.744 E57.50248
G1 X264.887 Y16.252 E61.18919
G1 X265.381 Y16.151 E61.21267
G1 X267.191 Y15.893 E61.2978
G1 X267.784 Y15.851 E61.32548
G1 X268.23 Y15.872 E61.34628
G1 X270.032 Y16.055 E61.43062
G1 X270.713 Y16.182 E61.46287
G1 X271.046 Y16.286 E61.47912
G1 X272.744 Y16.894 E61.5631
G1 X273.226 Y17.101 E61.58753
G1 X273.671 Y17.359 E61.61148
G1 X275.185 Y18.364 E61.69609
G1 X275.735 Y18.799 E61.72875
G1 X275.971 Y19.037 E61.74435
G1 X277.19 Y20.364 E61.82826
G1 X277.592 Y20.875 E61.85853
G1 X277.796 Y21.212 E61.87688
G1 X278.666 Y22.807 E61.96148
G1 X278.875 Y23.25 E61.98428
G1 X279.05 Y23.771 E62.00988
G1 X279.508 Y25.512 E62.0937
G1 X279.616 Y26.081 E62.12067
G1 X279.649 Y26.543 E62.14224
G1 X279.676 Y28.351 E62.22643
G1 X279.662 Y28.762 E62.24558
G1 X279.564 Y29.393 E62.27532
G1 X279.154 Y31.153 E62.35947
G1 X279.023 Y31.603 E62.38129
G1 X278.8 Y32.125 E62.40772
G1 X277.982 Y33.735 E62.49181
G1 X277.756 Y34.127 E62.51288
G1 X277.741 Y34.15 E62.51416
G1 X277.4 Y34.603 E62.54056
G1 X276.219 Y35.969 E62.62464
G1 X275.843 Y36.352 E62.64964
G1 X275.447 Y36.669 E62.67326
G1 X273.964 Y37.717 E62.75781
G1 X273.699 Y37.89 E62.77255
G1 X205.043 Y79.034 E66.49957
G1 X204.359 Y79.364 E66.53493
G1 X113.724 Y113.35 E71.04223
G1 X128.695 Y113.35 E71.73934
G1 X129.273 Y113.39 E71.76632
G1 X129.84 Y113.509 E71.79329
G1 X130.385 Y113.705 E71.82026
G1 X130.898 Y113.974 E71.84724
G1 X131.369 Y114.311 E71.8742
G1 X131.665 Y114.58 E71.89283
G1 X131.782 Y114.697 E71.90053
G1 X132.162 Y115.134 E71.9275
G1 X132.479 Y115.619 E71.95448
G1 X132.726 Y116.143 E71.98145
G1 X132.898 Y116.696 E72.00842
G1 X132.993 Y117.268 E72.03542
G1 X133.012 Y117.667 E72.05402
G1 X133.012 Y136.433 E72.92784
G1 X132.972 Y137.011 E72.95482
G1 X132.853 Y137.578 E72.9818
G1 X132.657 Y138.123 E73.00877
G1 X132.388 Y138.636 E73.03574
G1 X132.051 Y139.107 E73.06271
G1 X131.782 Y139.403 E73.08133
G1 X131.665 Y139.52 E73.08904
G1 X131.228 Y139.9 E73.116
G1 X130.743 Y140.217 E73.14298
G1 X130.219 Y140.464 E73.16996
G1 X129.666 Y140.636 E73.19692
G1 X129.094 Y140.731 E73.22392
G1 X128.695 Y140.75 E73.24252
G1 X110.36 Y140.75 E74.09628
G0 F6000 X109.96 Y140.35
G1 F1200 X109.96 Y152.825 E74.67716
G1 X118.804 Y151.258 E75.09539
G1 X202.465 Y82.424 E80.1401
G1 X203.033 Y82.037 E80.1721
G1 X272.994 Y43.147 E83.89927
G1 X273.247 Y43.018 E83.91249
G1 X274.915 Y42.248 E83.99803
G1 X275.431 Y42.054 E84.0237
G1 X275.788 Y41.967 E84.04081
G1 X277.582 Y41.621 E84.12589
G1 X278.137 Y41.556 E84.15191
G1 X278.528 Y41.556 E84.17012
G1 X280.337 Y41.653 E84.25447
G1 X280.718 Y41.693 E84.27231
G1 X281.267 Y41.817 E84.29852
G1 X282.989 Y42.341 E84.38233
G1 X283.462 Y42.52 E84.40588
G1 X283.849 Y42.721 E84.42619
G1 X285.405 Y43.649 E84.51055
G1 X285.762 Y43.89 E84.5306
G1 X285.783 Y43.906 E84.53183
G1 X286.158 Y44.233 E84.555
G1 X287.439 Y45.505 E84.63906
G1 X287.784 Y45.898 E84.66341
G1 X288.019 Y46.24 E84.68273
G1 X288.96 Y47.779 E84.76673
G1 X289.187 Y48.211 E84.78945
G1 X289.353 Y48.645 E84.81109
G1 X289.895 Y50.371 E84.89533
G1 X289.972 Y50.65 E84.90881
G1 X290.068 Y51.293 E84.93908
G1 X290.181 Y53.1 E85.02339
G1 X290.183 Y53.525 E85.04318
G1 X290.126 Y54.04 E85.0673
G1 X289.802 Y55.822 E85.15164
G1 X289.711 Y56.207 E85.17006
G1 X289.524 Y56.72 E85.19549
G1 X288.784 Y58.368 E85.27961
G1 X288.604 Y58.717 E85.29789
G1 X288.295 Y59.177 E85.32369
G1 X287.168 Y60.614 E85.40873
G1 X286.865 Y60.956 E85.43001
G1 X230.883 Y116.938 E89.11652
G1 X230.52 Y117.258 E89.13905
G1 X230.498 Y117.275 E89.14035
G1 X230.128 Y117.527 E89.16119
G1 X151.973 Y164.383 E93.40433
G1 X139.805 Y207.315 E95.48217
G1 X139.617 Y207.833 E95.50783
G1 X139.421 Y208.212 E95.5277
G1 X139.395 Y208.256 E95.53008
G1 X139.081 Y208.709 E95.55574
G1 X138.81 Y209.01 E95.5746
G1 X128.432 Y219.387 E96.25798
G1 X128.076 Y219.701 E96.28008
G1 X126.62 Y220.832 E96.36593
G1 X126.342 Y221.029 E96.3818
G1 X125.792 Y221.326 E96.4109
G1 X124.122 Y222.058 E96.49581
G1 X123.66 Y222.226 E96.5187
G1 X123.636 Y222.233 E96.51986
G1 X123.197 Y222.333 E96.54083
G1 X121.392 Y222.634 E96.62603
G1 X120.909 Y222.683 E96.64864
G1 X120.43 Y222.674 E96.67095
G1 X118.557 Y222.519 E96.75846
G1 X105.25 Y221.28 E97.38077
G1 X104.706 Y221.189 E97.40645
G1 X104.182 Y221.021 E97.43208
G1 X103.698 Y220.785 E97.45715
G1 X103.622 Y220.741 E97.46124
G1 X103.166 Y220.431 E97.48692
G1 X102.761 Y220.058 E97.51255
G1 X102.369 Y219.567 E97.54181
G1 X91.181 Y202.867 E98.47781
G1 X65.882 Y216.929 E99.82558
G1 X65.382 Y217.161 E99.85125
G1 X64.873 Y217.315 E99.87601
G1 X64.811 Y217.329 E99.87897
G1 X64.266 Y217.411 E99.90463
G1 X63.622 Y217.406 E99.93462
G1 X49.4 Y216.082 E100.59972
G1 X48.922 Y216.006 E100.62226
G1 X44.116 Y214.93 E100.85159
G1 X43.772 Y214.836 E100.86819
G1 X43.189 Y214.596 E100.89755
G1 X38.811 Y212.35 E101.12667
G1 X38.417 Y212.117 E101.14798
G1 X37.996 Y211.791 E101.17278
G1 X34.327 Y208.52 E101.40166
G1 X33.923 Y208.1 E101.42879
G1 X33.681 Y207.776 E101.44762
G1 X30.951 Y203.685 E101.67664
G1 X30.731 Y203.311 E101.69684
G1 X30.51 Y202.799 E101.72281
G1 X28.896 Y198.15 E101.95196
G1 X28.766 Y197.679 E101.97471
G1 X28.761 Y197.655 E101.97585
G1 X28.693 Y197.185 E101.99797
G1 X28.299 Y192.289 E102.22668
G1 X28.29 Y191.832 E102.24797
G1 X28.291 Y191.807 E102.24913
G1 X28.345 Y191.301 E102.27283
G1 X29.197 Y186.457 E102.50185
G1 X29.299 Y186.027 E102.52242
G1 X29.49 Y185.514 E102.54791
G1 X31.532 Y181.036 E102.77708
G1 X31.796 Y180.553 E102.80271
G1 X32.039 Y180.218 E102.82199
G1 X34.07 Y177.716 E102.97204
G1 X33.851 Y177.737 E102.98229
G1 X33.331 Y177.723 E103.00651
G1 X28.435 Y177.255 E103.23553
G1 X27.838 Y177.149 E103.26376
G1 X27.471 Y177.036 E103.28164
G1 X22.854 Y175.351 E103.5105
G1 X22.539 Y175.219 E103.5264
G1 X21.973 Y174.897 E103.55672
G1 X17.924 Y172.104 E103.78577
G1 X17.533 Y171.794 E103.809
G1 X17.512 Y171.775 E103.81032
G1 X17.186 Y171.442 E103.83202
G1 X13.974 Y167.727 E104.0607
G1 X13.666 Y167.318 E104.08454
G1 X13.651 Y167.295 E104.08582
G1 X13.427 Y166.903 E104.10684
G1 X11.249 Y162.496 E104.33574
G1 X11.042 Y161.985 E104.36141
G1 X10.935 Y161.585 E104.38069
G1 X9.929 Y156.744 E104.61093
G1 X9.862 Y156.277 E104.63289
G1 X9.853 Y155.759 E104.65702
G1 X10.097 Y150.848 E104.88598
G1 X10.134 Y150.472 E104.90357
G1 X10.27 Y149.872 E104.93222
G1 X11.741 Y145.179 E105.16123
G1 X11.914 Y144.729 E105.18368
G1 X17.879 Y131.747 E105.84893
G1 X18.145 Y131.265 E105.87456
G1 X18.495 Y130.806 E105.90144
G1 X18.536 Y130.76 E105.90431
G1 X18.932 Y130.376 E105.93
G1 X19.42 Y130.028 E105.95791
G1 X44.251 Y115.149 E107.30583
G1 X35.383 Y97.114 E108.24164
G1 X35.176 Y96.603 E108.26732
G1 X35.046 Y96.068 E108.29295
G1 X34.994 Y95.52 E108.31858
G1 X34.992 Y95.428 E108.32287
G1 X35.02 Y94.877 E108.34856
G1 X35.127 Y94.337 E108.37419
G1 X35.338 Y93.758 E108.40289
G1 X40.936 Y81.582 E109.0269
G1 X41.721 Y79.918 E109.11258
G1 X42.018 Y79.398 E109.14046
G1 X42.237 Y79.105 E109.15749
G1 X43.396 Y77.694 E109.24252
G1 X43.723 Y77.343 E109.26486
G1 X43.741 Y77.326 E109.26601
G1 X44.102 Y77.025 E109.2879
G1 X45.578 Y75.942 E109.37314
G1 X45.941 Y75.706 E109.3933
G1 X46.411 Y75.476 E109.41767
G1 X48.122 Y74.779 E109.5037
G1 X48.573 Y74.627 E109.52586
G1 X62.744 Y70.831 E110.20898
G1 X63.285 Y70.728 E110.23463
G1 X63.727 Y70.702 E110.25524
G1 X63.78 Y70.702 E110.25771
G1 X64.33 Y70.742 E110.28339
G1 X64.71 Y70.818 E110.30143
G1 X107.975 Y81.744 E112.37928
G1 X187.626 Y37.489 E116.62219
G1 X188.061 Y37.283 E116.6446
G1 X188.086 Y37.273 E116.64586
G1 X188.513 Y37.13 E116.66683
G1 X264.99 Y16.638 E120.35354
G1 X265.438 Y16.547 E120.37482
G1 X267.248 Y16.289 E120.45996
G1 X267.784 Y16.251 E120.48498
G1 X268.19 Y16.27 E120.5039
G1 X269.992 Y16.453 E120.58824
G1 X270.608 Y16.568 E120.61742
G1 X270.911 Y16.662 E120.6322
G1 X272.609 Y17.27 E120.71618
G1 X273.047 Y17.459 E120.73839
G1 X273.45 Y17.692 E120.76007
G1 X274.964 Y18.697 E120.84468
G1 X275.461 Y19.091 E120.87422
G1 X275.676 Y19.307 E120.88841
G1 X276.895 Y20.634 E120.97231
G1 X277.259 Y21.097 E120.99974
G1 X277.445 Y21.403 E121.01641
G1 X278.315 Y22.998 E121.10101
G1 X278.505 Y23.401 E121.12176
G1 X278.663 Y23.873 E121.14493
G1 X279.121 Y25.614 E121.22876
G1 X279.219 Y26.128 E121.25312
G1 X279.249 Y26.549 E121.27278
G1 X279.276 Y28.357 E121.35698
G1 X279.263 Y28.731 E121.3744
G1 X279.175 Y29.302 E121.4013
G1 X278.765 Y31.062 E121.48545
G1 X278.645 Y31.471 E121.5053
G1 X278.444 Y31.944 E121.52923
G1 X277.626 Y33.554 E121.61332
